images/logo/resources-n1.svg

<svg xmlns="http://www.w3.org/2000/svg" width="89" height="36" fill="none">
  <path fill="#BDBDBD" d="M81.7309 28.6498V.0703125H67.8594V7.04093l6.2038-.06971.0697 21.60888h-6.2735v6.9707h20.1451v-6.901h-6.2736ZM53.8442 6.27344h-6.9009v7.66766h-6.9706v6.9009h6.9706v7.7374h6.9009V20.842h7.0403v-6.9009h-7.0403V6.27344ZM22.4761 21.6089h-1.4638L7.7681 0H.867188v35.6896H7.7681V14.0109h1.39412L22.4761 35.6896h6.9009V0h-6.9009v21.6089Z"/>
</svg>

<svg width="89" height="36" viewBox="0 0 89 36" fill="none" xmlns="http://www.w3.org/2000/svg">
<path d="M81.7309 28.6498V0.0703125H67.8594V7.04093L74.0632 6.97122L74.1329 28.5801H67.8594V35.5508H88.0045V28.6498H81.7309Z" fill="#BDBDBD"/>
<path d="M53.8442 6.27344H46.9433V13.9411H39.9727V20.842H46.9433V28.5794H53.8442V20.842H60.8845V13.9411H53.8442V6.27344Z" fill="#BDBDBD"/>
<path d="M22.4761 21.6089H21.0123L7.7681 0H0.867188V35.6896H7.7681V14.0109H9.16222L22.4761 35.6896H29.377V0H22.4761V21.6089Z" fill="#BDBDBD"/>
</svg>
